!!!!SEGMENT: pl-kk--kk-i-389--002-007_anonim--missa-no-2-agnus.krn
!!!cenid: 17xx:2466
!!!COM: Anonim
!!!COM-rismID: pe30004985
!!!CDT:
!!!CNT:
!!!OPR: [Missa] No. 2.
!!!OTL: Agnus
!!!OMV: 007
!!!PDT:
!!!AGN: Sacred; Mass
!!!YEC: Copyright 2022 Narodowy Instytut Fryderyka Chopina (https://polishscores.org)
!!!YEM: License CC-BY-4.0 (https://creativecommons.org/licenses/by/4.0)
!!!SMS-siglum: PL-Kk
!!!SMS-shelfmark: Kk.I.389
!!!SMS-variant:
!!!SMS-altvar:
!!!SMS-shelfwork: 002-007 M
!!!NIFC-rismSourceID: 1001146182
!!!NIFC-rismChildID: 1001146223
!!!NIFC-islandoraID: pl-kk:6976
!!!URL-pdf-islandora: https://repozytorium.nifc.pl/islandora/object/pl-kk%3A6976/datastream/PDF/view
!!!URL-scan: https://polish.musicsources.pl/pl/lokalizacje/galeria/rekopisy/5999/1 @EN{Scan on Polish Music Sources Website} @PL{Skany w portalu Dziedzictwo Muzyki Polskiej w otwartym dostępie}
!!!IIIF:
!!!ONB-nifc: UWAGA: S – skan 4-5, A – 23-24, T – 42-43 , B – 61-62. Części Mszy: Rorate, Kyrie, Gloria, Graduale, Sanctus, Benedictus, Agnus.
!!!AIN: 1 alto 1 bass 1 soprn 1 tenor
!!!key: F
**kern	**text	**kern	**text	**kern	**text	**kern	**text
*part4	*part4	*part3	*part3	*part2	*part2	*part1	*part1
*staff4	*staff4	*staff3	*staff3	*staff2	*staff2	*staff1	*staff1
*I"Basso.	*	*I"Tenore.	*	*I"Alto.	*	*I"Soprano.	*
*I'[B]	*	*I'[T]	*	*I'[A]	*	*I'[S]	*
*ICvox	*	*ICvox	*	*ICvox	*	*ICvox	*
*Ibass	*	*Itenor	*	*Ialto	*	*Isoprn	*
*clefF4	*	*clefC4	*	*clefC3	*	*clefC1	*
*k[b-]	*	*k[b-]	*	*k[b-]	*	*k[b-]	*
*F:	*	*F:	*	*F:	*	*F:	*
*M3/2	*	*M3/2	*	*M3/2	*	*M3/2	*
=1	=1	=1	=1	=1	=1	=1	=1
!!LO:TX:t=P:problem: all\right	!	!	!	!	!	!	!
*	*	*2\right	*	*	*	*	*
1F	A-	2A\	A-	1c	A-	2f/	A-
.	.	2c\	.	.	.	2a/	.
*2\right	*	*	*	*2\right	*	*2\right	*
2F\	-gnus	2A\	-gnus	2f\	-gnus	2cc\	-gnus
=2	=2	=2	=2	=2	=2	=2	=2
2F\	De-	2c\	De-	2a\	De-	2cc\	De-
2F\	-i	2c\	-i	4a\	-i	4cc\	-i
.	.	.	.	4b-\	.	4dd\	qui
2C/	qui	2c\	qui	4a\	qui	4cc\	.
.	.	.	.	4g\	.	4b-\	.
=3	=3	=3	=3	=3	=3	=3	=3
2F\	tol-	2c\	tol-	2g\	tol-	2b-\	tol-
2F\	-lis	2c\	-lis	2f\	-lis	2a\	-lis
2AA/	pec-	2A\	pec-	2f\	pec-	2cc\	pec-
=4	=4	=4	=4	=4	=4	=4	=4
1BB-	-ca-	1B-	-ca-	1b-	-ca-	2dd\	-ca-
.	.	.	.	.	.	2gg\	.
2BBn/	-ta	2d\	-ta	2a\	-ta	2ff\	-ta
=5	=5	=5	=5	=5	=5	=5	=5
2C/	mun-	2c\	mun-	2a\	mun-	2ff\	mun-
2C/	-di	2c\	-di	2g\	-di	2ee\	-di
2r	.	2r	.	2r	.	2r	.
!	!	!	!	!LO:LB:g=original	!	!LO:LB:g=original	!
=6	=6	=6	=6	=6	=6	=6	=6
1F	Ag-	2A\	Ag-	1c	A-	2f/	A-
.	.	2c\	.	.	.	2a\	.
2F\	-nus	2A\	-nus	2f\	-gnus	2cc\	-gnus
!LO:LB:g=original	!	!LO:LB:g=original	!	!	!	!	!
=7	=7	=7	=7	=7	=7	=7	=7
2F\	De-	2c\	De-	2a\	De-	2cc\	De-
2F\	-i	2c\	-i	4a\	-i	4cc\	-i
.	.	.	.	4b-\	.	4dd\	.
2C/	qui	2c\	qui	4a\	qui	4cc\	qui
.	.	.	.	4g\	.	4b-\	.
=8	=8	=8	=8	=8	=8	=8	=8
2F\	tol-	2c\	tol-	2g\	tol-	2b-\	tol-
2F\	-lis	2c\	-lis	2f\	-lis	2a\	-lis
2AA/	pec-	2A\	pec-	2f\	pec-	2cc\	pec-
=9	=9	=9	=9	=9	=9	=9	=9
1BB-	-ca-	1B-	-ca-	1b-	-ca-	2dd\	-ca-
.	.	.	.	.	.	2gg\	.
2BBn/	-ta	2d\	-ta	2a\	-ta	2ff\	-ta
=10	=10	=10	=10	=10	=10	=10	=10
2C/	mun-	2c\	mun-	2a\	mun-	2ff\	mun-
2C/	-di	2c\	-di	2g\	-di	2ee\	-di
2r	.	2r	.	2r	.	2r	.
=11	=11	=11	=11	=11	=11	=11	=11
2C/	mi-	1G	mi-	1e	mi-	1cc	mi-
2E\	.	.	.	.	.	.	.
2C/	-se-	2G/	-se-	2e\	-se-	2cc\	-se-
=12	=12	=12	=12	=12	=12	=12	=12
1D	-re-	1G	-re-	1f	-re-	1bn	-re-
2D\	-re	2G/	-re	2f\	-re	2b\	-re
!	!	!	!	!	!	!LO:LB:g=original	!
=13	=13	=13	=13	=13	=13	=13	=13
2E\	mi-	1c	mi-	1g	mi-	1b-X	mi-
2G\	.	.	.	.	.	.	.
2E\	-se-	2c\	-se-	2g\	-se-	2b-\	-se-
!LO:LB:g=original	!	!	!	!LO:LB:g=original	!	!	!
=14	=14	=14	=14	=14	=14	=14	=14
2F\	-re-	1c	-re-	4f\	-re-	4a\	-re-
.	.	.	.	4g\	.	4b-\	.
2C/	.	.	.	4f\	.	4a\	.
.	.	.	.	4g\	.	4b-\	.
2FF/	-re	2c\	-re	2a\	-re	2cc\	-re
=15	=15	=15	=15	=15	=15	=15	=15
2D\	mi-	1A	mi-	1f#X	mi-	1dd	mi-
2F#X\	.	.	.	.	.	.	.
2D\	-se-	2A\	-se-	2f#\	-se-	2dd\	-se-
!	!	!LO:LB:g=original	!	!	!	!	!
=16	=16	=16	=16	=16	=16	=16	=16
1E	-re-	1A	-re-	1g	-re-	1cc#X	-re-
2E\	-re	2A\	-re	2g\	-re	2cc#\	-re
=17	=17	=17	=17	=17	=17	=17	=17
2F#X\	mi-	1d	mi-	1a	mi-	1ccn	mi-
2A\	.	.	.	.	.	.	.
2F#\	-se-	2d\	-se-	2a\	-se-	2cc\	-se-
=18	=18	=18	=18	=18	=18	=18	=18
2G\	-re-	1d	-re-	1g	-re-	1bn	-re-
2D\	.	.	.	.	.	.	.
2GG/	-re,	2d\	-re,	2g\	-re,	2b\	-re,
=19	=19	=19	=19	=19	=19	=19	=19
2G\	mi-	1d	mi-	1g	mi-	1bn	mi-
2B-\	.	.	.	.	.	.	.
2G\	-se-	2d\	-se-	2g\	-se-	2b\	-se-
=20	=20	=20	=20	=20	=20	=20	=20
1A	-re-	1d	-re-	1f#X	-re-	1cc	-re-
2A\	-re	2d\	-re	2f#\	-re	2cc\	-re
!LO:LB:g=original	!	!	!	!	!	!LO:LB:g=original	!
=21	=21	=21	=21	=21	=21	=21	=21
2Bn\	mi-	1G	mi-	1fn	mi-	1dd	mi-
2G\	.	.	.	.	.	.	.
2B\	-se-	2G/	-se-	2f\	-se-	2dd\	-se-
=22	=22	=22	=22	=22	=22	=22	=22
2c\	-re-	1c	-re-	1g	-re-	1ee	-re-
2G\	.	.	.	.	.	.	.
2C/	-re	2c\	-re	2g\	-re	2ee\	-re
!	!	!	!	!LO:LB:g=original	!	!	!
=23	=23	=23	=23	=23	=23	=23	=23
2C/	.	1e	mi-	1b-X	mi-	1gg	mi-
2E\	.	.	.	.	.	.	.
2C/	.	2c\	-se-	2g\	-se-	2ff\	-se-
=24	=24	=24	=24	=24	=24	=24	=24
.	.	.	.	.	.	8qqgg/	.
2F\	-re-	1c	-re-	2a\	-re-	2ff\	-re-
2E\	.	.	.	2g\	.	4ee\	.
.	.	.	.	.	.	4dd\	.
2F\	-re	2A\	-re	2f\	-re	2cc\	-re
=25	=25	=25	=25	=25	=25	=25	=25
1BB-	no-	1B-	no-	2f\	no-	1dd	no-
.	.	.	.	1g	.	.	.
2C/	.	2c\	.	.	.	2ee\	.
!	!	!LO:LB:g=original	!	!	!	!	!
=26	=26	=26	=26	=26	=26	=26	=26
1.FF	-bis	1.A	-bis	1.f	-bis.	1cc	-bis
.	.	.	.	.	.	2r	.
!LO:LB:g=original	!	!	!	!LO:LB:g=original	!	!LO:LB:g=original	!
=27||	=27||	=27||	=27||	=27||	=27||	=27||	=27||
*clefF4	*	*	*	*clefC3	*	*clefC1	*
*k[b-]	*	*	*	*k[b-]	*	*k[b-]	*
*M3/2	*	*M3/2	*	*M3/2	*	*M3/2	*
2F\	Ag-	1c	Ag-	1a	A-	2ff\	A-
2A\	.	.	.	.	.	2cc\	.
2c\	-nus	2c\	-nus	2g\	-gnus	2b-\	-gnus
=28	=28	=28	=28	=28	=28	=28	=28
4A\	De-	4c\	De-	4f\	De-	4a\	De-
4G\	.	4B-\	.	4g\	.	4b-\	.
2F\	-i	2A\	-i	2a\	-i	2cc\	-i
4r	.	4r	.	4r	.	4r	.
4F\	qui	4F/	qui	4a\	qui	4cc\	qui
=29	=29	=29	=29	=29	=29	=29	=29
2F\	tol-	2F/	tol-	4a\	tol-	4cc\	tol-
.	.	.	.	4b-\	.	4dd\	.
2C/	-lis	2G/	-lis	4a\	.	4cc\	.
.	.	.	.	4g\	.	4b-\	.
2FF/	pec-	2c\	pec-	2f\	-lis	2a\	-lis
=30	=30	=30	=30	=30	=30	=30	=30
2BB-/	-ca-	2G/	-ca-	4b-\	pec-	4dd\	pe-
.	.	.	.	4a\	.	4cc\	.
2BB-/	-ta	2G/	-ta	4b-\	-ca-	4dd\	-ca-
.	.	.	.	4a\	.	4cc\	.
4BB-/	mun-	2G/	mun-	4g\	.	4b-\	.
4BBn/	.	.	.	4f\	-ta	4a\	-ta
!	!	!	!	!LO:LB:g=original	!	!	!
=31	=31	=31	=31	=31	=31	=31	=31
2C/	.	2c\	.	2f\	mun-	2a\	mun-
2C/	-di	2c\	-di	2e\	-di	2g\	-di
4r	.	4r	.	4r	.	4r	.
4F\	qui	4F/	qui	4a\	qui	4cc\	qui
!LO:LB:g=original	!	!	!	!	!	!LO:LB:g=original	!
=32	=32	=32	=32	=32	=32	=32	=32
2F\	tol-	2F/	tol-	4a\	tol-	4cc\	tol-
.	.	.	.	4b-\	.	4dd\	.
2C/	.	2G/	.	4a\	.	4cc\	.
.	.	.	.	4g\	.	4b-\	.
2FF/	-lis	2c\	-lis	2f\	-lis	2a\	-lis
!	!	!LO:LB:g=original	!	!	!	!	!
=33	=33	=33	=33	=33	=33	=33	=33
2BB-/	pec-	2G/	pec-	4b-\	pec-	4dd\	pec-
.	.	.	.	4a\	.	4cc\	.
2BB-/	-ca-	2G/	-ca-	4b-\	-ca-	4dd\	.
.	.	.	.	4a\	.	4cc\	-ca-
4BB-/	-ta	2G/	-ta	4g\	.	4b-\	-ta
4BBn/	.	.	.	4f\	-ta	4a\	.
=34	=34	=34	=34	=34	=34	=34	=34
1.BBn	mun-	1.d	mun-	1.f	mun-	1.a	mun-
=35	=35	=35	=35	=35	=35	=35	=35
!	!	!LO:TX:a:t=Dona nobis ut Kyrie.	!	!LO:TX:b:t=Dona nobis ut Kyrie.	!	!LO:TX:a:t=Dona nobis ut Kyrie.	!
2.C/	-di.	1.c	-di.	1.e	-di.	1.g	-di.
4r	.	.	.	.	.	.	.
2ryy	.	.	.	.	.	.	.
!LO:LB:g=original	!	!LO:PB:g=original	!	!LO:PB:g=original	!	!LO:PB:g=original	!
=36||	=36||	=36||	=36||	=36||	=36||	=36||	=36||
*clefF4	*	*clefC4	*	*clefC3	*	*clefC1	*
*k[b-]	*	*k[b-]	*	*k[b-]	*	*k[b-]	*
*M3/2	*	*M3/2	*	*M3/2	*	*M3/2	*
!	!	!LO:TX:t=P:problem:melodię przepisałem z właściwego Kyrie. \nTekst dopisałem porównując do basu, tak jak ja to widzę. \nUstalone z p. Emilią Ziętek	!	!LO:TX:t=P:problem:melodię przepisałem z właściwego Kyrie. \nTekst dopisałem porównując do basu, tak jak ja to widzę. \nUstalone z p. Emilią Ziętek	!	!LO:TX:t=P:problem:melodię przepisałem z właściwego Kyrie. \nWszystko pasowało z wyjątkiem taktu 52, którego brakowało.\nTekst dopisałem porównując do basu, tak jak ja to widzę. \nUstalone z p. Emilią Ziętek	!
1F	Do-	2A\	Do-	2f\	Do-	2cc\	Do-
.	.	2c\	.	2a\	.	2ff\	.
2F\	-na	2B-\	-na	2b-\	-na	2dd\	-na
=37	=37	=37	=37	=37	=37	=37	=37
2F\	no-	2A/	no-	1a	no-	1cc	no-
2A\	.	2F/	.	.	.	.	.
2G\	-bis	2E/	-bis	2b-\	-bis	2dd\	-bis
=38	=38	=38	=38	=38	=38	=38	=38
2.F\	pa-	2.F/	pa-	2.a\	pa-	2.cc\	pa-
4E\	.	4G/	.	4b-\	.	4dd\	.
4F\	.	4A/	.	4a\	.	4cc\	.
4G\	.	4B-/	.	4g\	.	4b-\	.
=39	=39	=39	=39	=39	=39	=39	=39
2F\	-cem	2A\	-cem	2f\	-cem	2a\	-cem
2r	.	2r	.	2r	.	2r	.
2F\	do-	2A\	do-	4a\	do-	4cc\	do-
.	.	.	.	4f\	-na	4a\	-na
=40	=40	=40	=40	=40	=40	=40	=40
2c\	.	2G/	.	2f\	no-	2a\	no-
2C/	.	2c\	.	2e\	-bis	2g\	-bis
2E\	-na	2B-\	-na	4b-\	do-	4dd\	do-
.	.	.	.	4g\	-na	4b-\	-na
!LO:LB:g=original	!	!	!	!	!	!LO:LB:g=original	!
=41	=41	=41	=41	=41	=41	=41	=41
2E\	no-	2c\	no-	2g\	no-	2b-\	no-
2F\	.	2c\	.	2f\	.	2a\	.
2F\	-bis	2c\	-bis	2a\	-bis	2cc\	-bis
!	!	!LO:LB:g=original	!	!LO:LB:g=original	!	!	!
=42	=42	=42	=42	=42	=42	=42	=42
1F	pa-	4c\	pa-	2a\	pa-	2cc\	pa-
.	.	4A\	.	.	.	.	.
.	.	2F/	.	4b-\	.	4dd\	.
.	.	.	.	4a\	.	4cc\	.
4BB-/	.	2d\	.	4g\	.	4b-\	.
4BBn/	.	.	.	4f\	.	4a\	.
=43	=43	=43	=43	=43	=43	=43	=43
1C	-cem,	1c	-cem,	1e	-cem,	1g	-cem,
2r	.	2r	.	2r	.	2r	.
=44	=44	=44	=44	=44	=44	=44	=44
2.C/	do-	2.c\	do-	2.e\	Do-	2.g/	Do-
4D\	.	4Bn\	.	4d\	.	4f/	.
2E\	-na	2G/	-na	2c\	-na	2e/	-na
=45	=45	=45	=45	=45	=45	=45	=45
2F\	no-	4c\	no-	4e\	no-	4g/	no-
.	.	4Bn\	.	4d\	.	4f/	.
2G\	.	1G	-bis	2c/	.	2e/	.
2GG/	-bis	.	.	2Bn/	-bis	2d/	-bis
=46	=46	=46	=46	=46	=46	=46	=46
2C/	pa-	2G/	pa-	4c\	pa-	4e/	pa-
.	.	.	.	4e\	.	4cc\	.
2GG/	-cem,	2G/	-cem,	2d\	-cem	2bn\	-cem
2r	.	2r	.	2r	.	2r	.
!LO:LB:g=original	!	!	!	!	!	!LO:LB:g=original	!
=47	=47	=47	=47	=47	=47	=47	=47
2.C/	do-	2.c\	do-	2.g\	do-	2.ee\	do-
4D/	.	4Bn\	.	4f\	.	4dd\	.
2E\	-na	2G/	-na	2e\	-na	2cc\	-na
=48	=48	=48	=48	=48	=48	=48	=48
4E\	no-	2G/	no-	4g\	no-	4ee\	no-
4F\	-bis	.	.	4f\	-bis	4dd\	-bis
2G\	pa-	1G	-bis	2e\	pa-	2cc\	pa-
2GG/	.	.	.	2d\	.	2bn\	.
!	!	!	!	!LO:LB:g=original	!	!	!
=49	=49	=49	=49	=49	=49	=49	=49
2C/	-cem	2G/	do-	2e\	-cem	2cc\	-cem
4C\	do-	2G/	.	4e\	do-	2cc\	do-
4D\	.	.	.	4f\	.	.	.
4E\	.	2Bn\	-na	4g\	-na	2cc\	-na
4C/	-na	.	.	4e\	.	.	.
!	!	!LO:LB:g=original	!	!	!	!	!
=50	=50	=50	=50	=50	=50	=50	=50
2F\	no-	2c\	no-	2f\	no-	1cc	no-
2E\	.	2B-\	.	2g\	.	.	.
2F\	-bis	2A\	-bis	2a\	-bis	2cc\	-bis
=51	=51	=51	=51	=51	=51	=51	=51
.	.	.	.	8qcc/	.	.	.
2BB-/	pa-	2d\	pa-	4b-\	pa-	4dd\	pa
.	.	.	.	8a\L	.	8cc\L	.
.	.	.	.	8g\J	.	8b-\J	.
1C	.	1c	.	2f\	.	2a\	.
.	.	.	.	2e\	.	2g\	.
=52	=52	=52	=52	=52	=52	=52	=52
2F\	-cem	2c\	-cem	2f\	-cem	1.ryy	.
!LO:LB:g=original	!	!	!	!	!	!	!
4C\	do-	2G/	do-	4e\	do-	.	.
4D\	.	.	.	4f\	.	.	.
4E\	.	2B-X\	-na	4g\	.	.	.
4C\	-na	.	.	4e\	-na	.	.
=53	=53	=53	=53	=53	=53	=53	=53
2F\	no-	1c	no-	2a\	no-	2a\	no-
2G\	.	.	.	2g\	.	2b-\	.
2A\	-bis	2c\	-bis	2f\	-bis	2cc\	-bis
=54	=54	=54	=54	=54	=54	=54	=54
.	.	.	.	8qcc/	.	8qee/	.
2B-\	pa-	2B-\	pa-	4b-\	pa-	4dd\	pa-
.	.	.	.	8a\L	.	8cc\L	.
.	.	.	.	8g\J	.	8b-\J	.
!	!	!	!	!	!	!LO:LB:g=original	!
2c\	.	1c	.	2f\	.	2a\	.
2C/	.	.	.	2e\	.	2g\	.
=55	=55	=55	=55	=55	=55	=55	=55
1F	-cem.	1c	-cem.	1f	-cem.	1a	-cem.
2r	.	2r	.	2ryy	.	2r	.
==	==	==	==	==	==	==	==
*-	*-	*-	*-	*-	*-	*-	*-
!!!system-decoration: [(s1,s2,s3,s4)]
!!!ENC: Andrzej Gręziak
!!!END: 2023-11-05
!!!EED: Jan Barakat
!!!EEV: 2023-11-27
